X: 31543
T: COTILLION No. 39. CONCERT HALL SETT tune 3
C:
%R: reel
B: Elias Howe "The Musician's Companion" Part 3 1844 p.154 #3
S: http://imslp.org/wiki/The_Musician's_Companion_(Howe,_Elias)
Z: 2015 John Chambers <jc:trillian.mit.edu>
M: 2/4
L: 1/16
K: D
% - - - - - - - - - - - - - - - - - - - - - - - - -
fe |\
.d2.F2 .B2.A2 | D3E F2ED | E2e2e2d2 | B2e2e2 fe |\
.d2.F2 .B2.A2 | D3E F2ED | F2A2 Bdce | d2f2d2 H|]
FG |\
A>FD2 d>AF2 | f>dA2 a>fd2 | eAce gfed | edcB A2FG |\
A>FD2 d>AF2 | f>dA2 a>fd2 | efge Agec | d2f2"^D.C."d2 |]
A2 |\
D2 (3(ABA) .F2.A2 | D2(f2g2)f2 | .E2(3(ABA) .^G2.A2 | E2(A2c2A2) |\
D2(3(ABA) .F2.A2 | D2(f2g2)f2 | (b2a2).g2.c2 | d2f2"^D.C."d2 |]
% - - - - - - - - - - Dance description - - - - - - - - - -
%%begintext align
%% First couple forward and back,
%% balance and turn,
%% cross over second couple,
%% balance and turn,
%% &c.
%%endtext
% - - - - - - - - - - - - - - - - - - - - - - - - -
%%sep 1 1 300
